src/icon/banking/card-add/icon_card-add_s_white.svg

<svg width="18px" height="18px" viewBox="0 0 18 18" version="1.1" xmlns="http://www.w3.org/2000/svg"><g transform="translate(-24.000000, -193.000000) translate(24.000000, 193.000000)" stroke="none" stroke-width="1" fill="none" fill-rule="evenodd"><rect x="0" y="0" width="18" height="18"/><path d="M3,10 L6,10 L6,12 L3,12 L3,10 Z M0,6 L17,6 L17,8 L0,8 L0,6 Z" fill="#FFFFFF" fill-rule="nonzero" opacity="0.3"/><path d="M17,8.03684394 L16.2272727,8.03684394 L16.2272727,3.85714286 C16.2272727,3.24588691 15.7636246,2.76470588 15.2105263,2.76470588 L1.78947368,2.76470588 C1.23637539,2.76470588 0.772727273,3.24588691 0.772727273,3.85714286 L0.772727273,13.1428571 C0.772727273,13.7541131 1.23637539,14.2352941 1.78947368,14.2352941 L10.0446773,14.2352941 L10.0446773,15 L1.78947368,15 C0.801174658,15 0,14.1685288 0,13.1428571 L0,3.85714286 C0,2.83147118 0.801174658,2 1.78947368,2 L15.2105263,2 C16.1988253,2 17,2.83147118 17,3.85714286 L17,8.03684394 Z" fill="#FFFFFF" fill-rule="nonzero"/><polygon fill="#FFFFFF" points="15.8571429 16 15.8571429 13.8571429 18 13.8571429 18 13.1428571 15.8571429 13.1428571 15.8571429 11 15.1428571 11 15.1428571 13.1428571 13 13.1428571 13 13.8571429 15.1428571 13.8571429 15.1428571 16"/></g></svg>

<svg width="18" height="18" viewBox="0 0 18 18" xmlns="http://www.w3.org/2000/svg"><g fill="none" fill-rule="evenodd"><path d="M0 0h18v18H0z"/><path d="M3 10h3v2H3v-2zM0 6h17v2H0V6z" fill="#FFF" fill-rule="nonzero" opacity=".3"/><path d="M17 8.037h-.773v-4.18c0-.611-.463-1.092-1.016-1.092H1.789c-.553 0-1.016.48-1.016 1.092v9.286c0 .611.463 1.092 1.016 1.092h8.256V15H1.789C.801 15 0 14.169 0 13.143V3.857C0 2.831.801 2 1.79 2h13.42C16.2 2 17 2.831 17 3.857v4.18z" fill="#FFF" fill-rule="nonzero"/><path fill="#FFF" d="M15.857 16v-2.143H18v-.714h-2.143V11h-.714v2.143H13v.714h2.143V16z"/></g></svg>
